!!!!SEGMENT: pl-kk--kk-i-297--001_anonim--tollite-portas.krn
!!!cenid: 16xx:1963
!!!COM: Anonim
!!!COM-rismID: pe30004985
!!!CDT:
!!!CNT:
!!!OTL: Tollite portas
!!!PDT:
!!!AGN: Sacred
!!!YEC: Copyright 2022 Narodowy Instytut Fryderyka Chopina (https://polishscores.org)
!!!YEM: License CC-BY-4.0 (https://creativecommons.org/licenses/by/4.0)
!!!SMS-siglum: PL-Kk
!!!SMS-shelfmark: Kk.I.297
!!!SMS-variant:
!!!SMS-altvar:
!!!SMS-shelfwork: 001 W
!!!NIFC-rismSourceID: 1001147739
!!!NIFC-rismChildID: 1001147740
!!!NIFC-islandoraID: pl-kk:5092
!!!URL-pdf-islandora: https://repozytorium.nifc.pl/islandora/object/pl-kk:5092/datastream/PDF/view
!!!URL-scan: https://polish.musicsources.pl/pl/lokalizacje/galeria/rekopisy/5915/1 @EN{Scan on Polish Music Sources Website} @PL{Skany w portalu Dziedzictwo Muzyki Polskiej w otwartym dostępie}
!!!IIIF:
!!!ONB-nifc: UWAGA: utwory w źródle: 1. Tollite portas, 2, Alleluia ave Maria
!!!OMD:
!!!AIN: 1 alto 1 bass 1 canto 1 tenor
!!!key: C
**kern	**text	**kern	**text	**kern	**text	**kern	**text
*part4	*part4	*part3	*part3	*part2	*part2	*part1	*part1
*staff4	*staff4	*staff3	*staff3	*staff2	*staff2	*staff1	*staff1
*I"Baſso.	*	*I"Tenore	*	*I"Alto.	*	*I"Canto.	*
*I'B	*	*I'T	*	*I'A	*	*I'S	*
*Ibass	*	*Itenor	*	*Ialto	*	*Icanto	*
*ICvox	*	*ICvox	*	*ICvox	*	*ICvox	*
*clefF4	*	*clefC4	*	*clefC3	*	*clefC1	*
*k[]	*	*k[]	*	*k[]	*	*k[]	*
*C:	*	*C:	*	*C:	*	*C:	*
*M3/2	*	*M3/2	*	*M3/2	*	*M3/2	*
=1	=1	=1	=1	=1	=1	=1	=1
0.r	.	0.r	.	1.r	.	2.g/	Tol-
.	.	.	.	.	.	4g/	-li-
.	.	.	.	.	.	2g/	-te
=2	=2	=2	=2	=2	=2	=2	=2
.	.	.	.	2.c/	Tol-	(4cc\	tol-
.	.	.	.	.	.	4dd\	.
.	.	.	.	.	.	4cc\	.
.	.	.	.	4c/	-li-	4dd\)	.
.	.	.	.	2c/	-te	4cc\	.
.	.	.	.	.	.	4dd\	.
=3	=3	=3	=3	=3	=3	=3	=3
1.r	.	2.G/	Tol-	4g\	tol-	4b\	.
.	.	.	.	(4a\	.	4cc\	.
.	.	.	.	4g\	.	4b\	.
.	.	4G/	-li-	4a\)	.	4cc\	.
.	.	2G/	-te	4b\	.	4dd\	.
.	.	.	.	4g\	.	4b\	.
=4	=4	=4	=4	=4	=4	=4	=4
*	*	*	*	*2\right	*	*	*
2.C/	Tol-	4c\	Tol-	2.g\	.	(4ee\	.
.	.	4d\	.	.	.	4ff\	.
.	.	4c\	.	.	.	4ee\)	.
4C/	-li-	4d\	.	4g\	-li-	4ff\	.
2C/	-te	4c\	.	2g\	-te	4ee\	.
.	.	4d\	.	.	.	4ff\	.
=5	=5	=5	=5	=5	=5	=5	=5
*	*	*2\right	*	*	*	*2\right	*
4G\	tol-	2.B\	.	2r	.	2.dd\	.
4A\	.	.	.	.	.	.	.
4G\	.	.	.	[<1g	Tol-	.	.
4A\	.	4B\	-li-	.	.	4dd\	-li-
4B\	.	2B\	-te	.	.	2dd\	-te
4G\	.	.	.	.	.	.	.
=6	=6	=6	=6	=6	=6	=6	=6
*2\right	*	*	*ij	*	*	*	*ij
2.c\	.	2.c\	Tol-	2.g\]	.	2.ee\	tol-
4c\	-li-	4c\	-li-	4g\	-li-	4ee\	-li-
2c\	-te	2c\	-te	2g\	-te	2ee\	-te
*	*	*	*Xij	*	*	*	*Xij
=7	=7	=7	=7	=7	=7	=7	=7
1A	Por-	1c	por-	1f#X	por-	1cc	por-
2A\	-tas	2c\	-tas	2f#\	-tas	2cc\	-tas
=8	=8	=8	=8	=8	=8	=8	=8
2.G\	prin-	2.B\	Prin-	2.g\	Prin-	2.dd\	Prin-
4G\	-ci-	4B\	-ci-	4g\	-ci-	4dd\	-ci-
2G\	-pes	2B\	-pes	2g\	-pes	2dd\	-pes
=9	=9	=9	=9	=9	=9	=9	=9
*	*	*	*ij	*	*	*	*
2E\	Ve-	2.e\	Prin-	2g\	Ve-	2cc\	veſ-
2C/	.	.	.	2e\	.	2cc\	-tras
.	.	4e\	-ci-	.	.	.	.
2c\	.	2e\	-pes	[<2g\	.	2r	.
*	*	*	*Xij	*custos:g	*	*	*
!	!	!LO:LB:g=original	!	!LO:LB:g=original	!	!LO:LB:g=original	!
=10	=10	=10	=10	=10	=10	=10	=10
4B\	.	(4d\	Ve-	2g\]	.	2g\	et
4c\	.	4e\	.	.	.	.	.
4B\	.	4d\	.	2d\	.	2g\	e-
4c\	.	4e\)	.	.	.	.	.
4B\	.	4d\	.	[<2g\	.	2g\	-le-
4c\	.	4e\	.	.	.	.	.
!LO:LB:g=original	!	!	!	!	!	!	!
=11	=11	=11	=11	=11	=11	=11	=11
1A	.	2c\	.	1g]	.	(4cc\	-va-
.	.	.	.	.	.	4dd\	.
.	.	1A	.	.	.	4cc\	.
.	.	.	.	.	.	4dd\)	.
2D/	.	.	.	2f#X,<\	-stras	4cc\	.
.	.	.	.	.	.	4dd\	.
=12	=12	=12	=12	=12	=12	=12	=12
2G\	-stras	2B\	-stras	2d\	et	4b\	.
.	.	.	.	.	.	4b\	-mi-
2r	.	2r	.	2d\	e-	2b\	-ni
2r	.	2r	.	2d\	-le-	2r	.
=13	=13	=13	=13	=13	=13	=13	=13
2G\	et	2G/	et	4g\	-va-	2b\	et
.	.	.	.	4a\	.	.	.
2G\	e-	2d\	e-	4g\	.	2b\	e-
.	.	.	.	4a\	.	.	.
2G\	-le-	2B\	-le-	4g\	.	2dd\	-le-
.	.	.	.	4a\	.	.	.
=14	=14	=14	=14	=14	=14	=14	=14
4c\	-va-	2G/	-va-	2g\	.	4ee\	-va-
4d\	.	.	.	.	.	4ff\	.
4c\	.	1c	.	[<1a	.	4ee\	.
4d\	.	.	.	.	.	4ff\	.
4c\	.	.	.	.	.	4ee\	.
4d\	.	.	.	.	.	4ff\	.
=15	=15	=15	=15	=15	=15	=15	=15
4Bn\	.	2Fn/	.	2a\]	.	4dd\	.
4c\	.	.	.	.	.	4ee\	.
4B\	.	1B	.	[<1g	.	4dd\	.
4c\	.	.	.	.	.	4ee\	.
4B\	.	.	.	.	.	4dd\	.
4c\	.	.	.	.	.	4ee\	.
=16	=16	=16	=16	=16	=16	=16	=16
4A\	.	2E/	.	2g\]	.	4cc\	.
4B\	.	.	.	.	.	4dd\	.
4A\	.	1A	.	[<1fn	.	4cc\	.
4B\	.	.	.	.	.	4dd\	.
4A\	.	.	.	.	.	4cc\	.
4B\	.	.	.	.	.	4dd\	.
=17	=17	=17	=17	=17	=17	=17	=17
4G\	.	2D/	.	2f\]	.	4b\	.
4A\	.	.	.	.	.	4cc\	.
4G\	.	1G	.	1e	.	4b\	.
4A\	.	.	.	.	.	4cc\	.
4G\	.	.	.	.	.	4b\	.
4A\	.	.	.	.	.	4cc\	.
=18	=18	=18	=18	=18	=18	=18	=18
4Fn\	.	2c\	.	4a\	.	2a\	.
4G\	.	.	.	4b\	.	.	.
4F\	.	2f\	.	4a\	.	[<1dd	.
4G\	.	.	.	4b\	.	.	.
4F\	.	2A\	.	4a\	.	.	.
4G\	.	.	.	4b\	.	.	.
*custos:E	*	*	*	*	*	*	*
!LO:LB:g=original	!	!	!	!	!	!	!
=19	=19	=19	=19	=19	=19	=19	=19
2.E\	.	2.B\	.	2.g\	.	2.dd\]	.
4E\	-mi-	4B\	-mi-	4g\	-mi-	4ccn\	-mi-
2F\	-ni	2A\	-ni	2fn\	-ni	2cc\	-ni
!	!	!LO:LB:g=original	!	!LO:LB:g=original	!	!LO:LB:g=original	!
=20	=20	=20	=20	=20	=20	=20	=20
2D\	por-	2d\	por-	2f\	por-	2dd\	por-
2D,<\	-tae	2d,<\	-tae	2f,<\	-tae	2a\	-tae
2A\	ae-	2e\	ae-	2e\	ae-	2a\	ae-
=21	=21	=21	=21	=21	=21	=21	=21
2F\	-ter-	2d\	-ter-	4f\	-ter-	2a\	-ter-
.	.	.	.	4e\	.	.	.
2G\	-na-	2d\	-na-	1d	-na-	2gn/	-na-
2GG/	.	2B,<\	-les	.	.	2g,</	-les
=22	=22	=22	=22	=22	=22	=22	=22
2C/	-les,	2G/	et	2e,<\	-les	2b\	et
2r	.	2A\	in-	2r	.	2cc\	in-
2r	.	2B\	-tro-	2r	.	2dd\	-tro-
=23	=23	=23	=23	=23	=23	=23	=23
2C/	et	(2c\	-i-	2e\	et	2ee\	-i-
2D\	in-	1B)	.	2f\	in-	1dd	.
2E\	-tro-	.	.	2g\	-tro-	.	.
=24	=24	=24	=24	=24	=24	=24	=24
2F\	-i-	2c\	.	2a\	-i-	2cc\	.
2C,</	-bit	2c,<\	-bit	2g\	-bit.	2ee,<\	-bit
2c\	et	2e\	Rex	2g\	Rex	2cc\	Rex
=25	=25	=25	=25	=25	=25	=25	=25
1Bn	in-	1f	glo-	1.g	glo-	1dd	.
2c\	-tro-	[<2e\	.	.	.	[<2cc\	glo-
=26	=26	=26	=26	=26	=26	=26	=26
1A	-i-	1e]	.	1.fn	.	1cc]	.
2B\	-bit	[<2d\	.	.	.	[<2b\	.
*custos:G	*	*	*	*	*	*	*
!LO:LB:g=original	!	!	!	!	!	!	!
=27	=27	=27	=27	=27	=27	=27	=27
(1G	Rex	1d]	.	1.e	.	1b]	.
2A\)	.	[<2c\	.	.	.	[<2a\	.
=28	=28	=28	=28	=28	=28	=28	=28
(1F	glo-	1c]	.	1.d	.	1a]	.
2G\)	.	2B\	.	.	.	2g\	.
!	!	!LO:LB:g=original	!	!	!	!	!
=29	=29	=29	=29	=29	=29	=29	=29
2.E\	.	2.c\	.	2.g\	.	2g/	-ri-
.	.	.	.	.	.	4g/	-ae
4E\	-ri-	4c\	-ri-	4g\	-ri-	4g/	.
*	*	*	*	*	*	*2\left	*
2F,<\	-ae	2c\	-ae	2fn\	-ae	2a\	Rex
*	*	*	*	*custos:f	*	*	*
!	!	!	!	!LO:LB:g=original	!	!LO:LB:g=original	!
=30	=30	=30	=30	=30	=30	=30	=30
2D\	Rex	2B\	Rex	2f\	Rex	1a	glo-
2.E\	glo-	2.B\	glo-	2.e\	glo-	.	.
*	*	*	*	*	*	*2\right	*
.	.	.	.	.	.	2g#X\	-ri-
4E\	-ri-	4B\	-ri-	4e\	-ri-	.	.
=31	=31	=31	=31	=31	=31	=31	=31
2AA,</	-ae	2c,<\	-ae	2e,<\	-ae	2a,<\	-ae
2A\	in-	2c\	in-	2e\	in-	2a\	in-
2B\	-tro-	2d\	-tro-	2d\	-tro-	2gn/	-tro-
=32	=32	=32	=32	=32	=32	=32	=32
2c\	-i-	2e\	-i-	2g\	-i-	2cc\	-i-
2F,<\	-bit	2f\	-bit	2a\	-bit	2cc,<\	-bit
2c\	Rex	2en\	Rex	2g\	Rex	2cc\	Rex
=33	=33	=33	=33	=33	=33	=33	=33
2.F#X\	glo-	2.e-X\	glo-	2.a\	glo-	2cc\	glo-
.	.	.	.	.	.	4cc\	-ri-
4F#\	-ri-	4e-\	-ri-	4a\	-ri-	4cc,<\	-ae
2F#\	-ae	2e-\	-ae	2a\	-ae	[<2cc\	Rex
=34	=34	=34	=34	=34	=34	=34	=34
1.G	Rex	1.d	Rex	1.g	Rex	1cc]	.
.	.	.	.	.	.	2b\	.
!LO:LB:g=original	!	!	!	!	!	!	!
=35	=35	=35	=35	=35	=35	=35	=35
[<1.A	glo-	[<1.c	glo-	[<1.f#X	glo-	[<1.dd	glo-
=36	=36	=36	=36	=36	=36	=36	=36
1.A]	.	1.c]	.	1.f#]	.	1.dd]	.
=37	=37	=37	=37	=37	=37	=37	=37
[<1.G	.	1B	.	1g	.	1dd	.
.	.	[<2c\	.	2e\	.	2g/	.
=38	=38	=38	=38	=38	=38	=38	=38
1G]	.	1c]	.	1d	.	1g	-ri-
2GG/	-ri-	2B\	-ri-	2d\	-ri-	2g\	-ae.
=39	=39	=39	=39	=39	=39	=39	=39
0.C;	-ae.	0.c;	-ae.	0.e	-ae.	1.g	.
=40	=40	=40	=40	=40	=40	=40	=40
.	.	.	.	.	.	1.ryy	.
!	!	!LO:LB:g=original	!	!LO:LB:g=original	!	!	!
=41||	=41||	=41||	=41||	=41||	=41||	=41||	=41||
*M3/2	*	*M3/2	*	*M3/2	*	*M3/2	*
!	!	!LO:TX:a:t=Forte	!	!	!	!	!
00.r	.	1A	Quis	1c	Quis	1a	Quis
.	.	2B\	as-	2d\	as-	2g#X\	aſ-
=42	=42	=42	=42	=42	=42	=42	=42
.	.	2c\	-cen-	2e\	-cen-	2a\	-cen-
.	.	2c\	-det	2e\	-det	2a\	-det
.	.	2A/	in	2e\	in	[<2ee\	in
*	*	*	*	*	*	*custos:ee	*
!	!	!	!	!	!	!LO:LB:g=original	!
=43	=43	=43	=43	=43	=43	=43	=43
.	.	1f	Mon-	(2fn\	mon-	2ee\]	.
.	.	.	.	2g\)	.	2ee\	mon-
.	.	2f\	-tem	2a\	-tem	(4dd\	-tem
.	.	.	.	.	.	4cc\)	.
=44	=44	=44	=44	=44	=44	=44	=44
.	.	2.e\	Do-	2.g#X\	Do-	2.b\	Do-
.	.	4e\	-mi-	4g#\	-mi-	4b\	-mi-
.	.	2e\	-ni	2g#\	-ni	2b\	-ni
=45	=45	=45	=45	=45	=45	=45	=45
1.r	.	1.r	.	1g#X	aut	1ee	aût
.	.	.	.	2g#\	quis	2ee\	quis
=46	=46	=46	=46	=46	=46	=46	=46
1A	Aut	1c	aût	[<1.a	sta-	(4cc\	.
.	.	.	.	.	.	4b\	.
.	.	.	.	.	.	4cc\)	.
.	.	.	.	.	.	4dd\	sta-
2A\	quis	2c\	quis	.	.	4cc\	.
.	.	.	.	.	.	4b\	.
=47	=47	=47	=47	=47	=47	=47	=47
4F\	sta-	[<1.d	sta-	2a\]	.	4a\	.
4E\	.	.	.	.	.	4g\	.
4F\	.	.	.	2fn\	.	4a\	.
4G\	.	.	.	.	.	4b\	.
4F\	.	.	.	2d\	.	4a\	.
4E\	.	.	.	.	.	4g\	.
=48	=48	=48	=48	=48	=48	=48	=48
2D/	.	2d\]	.	2f#X\	.	2f#X/	.
2D,</	-bit	2d\	-bit,	2f#,<\	-bit	2dd,<\	-bit
2D/	quis	2d\	quis	2f#\	quis	2dd\	quis
*	*	*	*	*custos:g	*	*	*
!	!	!	!	!LO:LB:g=original	!	!	!
=49	=49	=49	=49	=49	=49	=49	=49
4G\	sta-	1.d	sta-	[<1.g	sta-	(4b\	sta-
4F\	.	.	.	.	.	4a\	.
4G\	.	.	.	.	.	4b\)	.
4A\	.	.	.	.	.	4cc\	.
4G\	.	.	.	.	.	4b\	.
4F\	.	.	.	.	.	4a\	.
!LO:LB:g=original	!	!	!	!	!	!	!
=50	=50	=50	=50	=50	=50	=50	=50
2E\	.	2e\	.	2g\]	.	2g\	.
2E,<\	-bit	2e,<\	-bit	2g\	-bit	2cc,<\	-bit
2C/	in	2e\	in	2e\	in	2g\	in
!	!	!LO:LB:g=original	!	!	!	!	!
=51	=51	=51	=51	=51	=51	=51	=51
2.F\	lo-	2.c\	lo-	2.fn\	lo-	2.a\	lo-
4F\	-co	4d,<\	-co	4g\	-co	4b,<\	-co
2E\	San-	2e\	San-	2g\	san-	2cc\	san-
=52	=52	=52	=52	=52	=52	=52	=52
2F\	-cto	2A,</	-cto	2fn\	-cto	2cc,<\	-cto
1D	E-	2A/	E-	1f	E-	2cc\	E-
.	.	2F/	.	.	.	2b\	.
*	*	*	*	*	*	*custos:cc	*
!	!	!	!	!	!	!LO:LB:g=original	!
=53	=53	=53	=53	=53	=53	=53	=53
2C,</	-jus?	2G,</	-jus?	2e,<\	-jus?	2cc,<\	-jus?
4AA/	In-	4c\	In-	4e\	In-	4a\	In-
4AA/	-no-	4c\	-no-	4e\	-no-	4a\	-no-
2BB/	-cens	2B\	-cens	2d\	-cens	2g#X/	-cens
=54	=54	=54	=54	=54	=54	=54	=54
2.C/	ma-	2.A\	ma-	2.e\	ma-	4a\	ma-
.	.	.	.	.	.	4a\	-ni-
.	.	.	.	.	.	2b,<\	-b(us)
4C/	-ni-	4A\	-ni-	4e\	-ni-	.	.
2D\	-b(us)	2d\	-b(us)	2e\	-b(us)	2b\	et
=55	=55	=55	=55	=55	=55	=55	=55
(<1E	et	(1B	et	(1e	et	2g#X/	mun-
.	.	.	.	.	.	2e,</	-do
2C/)	.	2c\)	.	2g\)	.	[<2ee\	Cor-
=56	=56	=56	=56	=56	=56	=56	=56
1F	mun-	1A	mun-	1fn	mun-	2ee\]	.
.	.	.	.	.	.	2a\	.
2BB/	-do	2B\	-do	2f\	-do	[<2dd\	.
=57	=57	=57	=57	=57	=57	=57	=57
(<1E	cor-	(1G	Cor-	1.e	cor-	2dd\]	.
.	.	.	.	.	.	2g\	.
2AA/)	.	2A,</)	.	.	.	[<2cc\	.
*custos:D	*	*	*	*	*	*	*
!LO:LB:g=original	!	!	!	!LO:LB:g=original	!	!	!
=58	=58	=58	=58	=58	=58	=58	=58
1D,<	-de	1Fn,<	-de	1d,<	-le	2cc\]	.
.	.	.	.	.	.	(4b\	-de
.	.	.	.	.	.	4a\)	.
2D\	et	2d\	et	2f\	et	2b\	et
=59	=59	=59	=59	=59	=59	=59	=59
1C	mun-	1e	mun-	1g	mun-	(2.cc\	mun-
.	.	.	.	.	.	4b\)	.
2D\	-do	(4d\	-do	2f\	-do	[<2a\	-do
.	.	4c\)	.	.	.	.	.
*	*	*custos:B	*	*	*	*	*
!	!	!LO:LB:g=original	!	!	!	!	!
=60	=60	=60	=60	=60	=60	=60	=60
1.E	Cor-	1.B	Cor-	1.e	Cor-	1a]	.
.	.	.	.	.	.	2g#X/	Cor-
=61	=61	=61	=61	=61	=61	=61	=61
!LO:TX:b:t=Vertat	!	!LO:TX:b:t=Vertat	!	!LO:TX:b:t=Vertat	!	!LO:TX:b:t=3/2 Vertat	!
0.AA;	-de.	0.c#X	-de.	0.e;	-de.	0.a;	-de.
=62	=62	=62	=62	=62	=62	=62	=62
.	.	.	.	.	.	.	.
==	==	==	==	==	==	==	==
*-	*-	*-	*-	*-	*-	*-	*-
!!!system-decoration: [(s1,s2,s3,s4)]
!!!RDF**kern: < = below
!!!ENC: Andrzej Gręziak
!!!END: 2024-04-17
!!!EED: Marta Chmielewska
!!!EEV: 2024-06-03
